!!!COM: Bach, Johann Sebastian
!!!OPR: Joh. Seb. Bachs vierstimmige Choralgesänge
!!!XEN: Four-part Chorales
!!!OTL: 140. O Welt, sieh' hier dein Leben
!!!SCT: BWV 393
!!!SCA: Thematisch-systematisches Verzeichnis der musikalischen Werke Johann Sebastian Bach: Bach-Werke-Verzeichnis (Schmieder)
!!!YOR: Bach Gesellschaft Edition xxxix
!!!ENC: Steven Rasmussen
!!!CDT: 1685/3//-1750/7/28/
!!!OCY: Deutschland
!!!YEC: Copyright (c) 1994, 2000 Center for Computer Assisted Research in the Humanities
!!!YEM: Rights to all derivative editions reserved
!!!YEN: United States of America
**kern	**kern	**kern	**kern	**silbe
*I:[BASSO]	*I:[TENORE]	*I:[ALTO]	*I:[SOPRANO]	*I:[SOPRANO]
*clefF4	*clefGv2	*clefG2	*clefG2	*
*k[f#c#g#]	*k[f#c#g#]	*k[f#c#g#]	*k[f#c#g#]	*
*A:	*A:	*A:	*A:	*
*M4/4	*M4/4	*M4/4	*M4/4	*
4E#	4c#	4g#	4cc#	O
=1	=1	=1	=1	=1
4F#	4c#	4f#	4a	Welt,
4G#	4B	4e	4b	sieh'
4A	4A	4e	8cc#L	hier
.	.	.	8ddJ	.
4C#	4A	4e	4ee	dein
=2	=2	=2	=2	=2
4BB	4A	4f#	2dd	Le-
4E	4G#	4e	.	.
4AA;	4A;	4e;	4cc#;	-ben
4A	4e	4a	8cc#L	am
.	.	.	8ddJ	.
=3	=3	=3	=3	=3
4C#	4e	8aL	4ee	Stamm
.	.	8g#J	.	.
8C#L	4e	4a	4ee	des
8DJ	.	.	.	.
4E	4e	8g#L	4b	Kreu-
.	.	8f#J	.	.
4C#	4G#	8f#L	4cc#	-zes
.	.	8eJ	.	.
=4	=4	=4	=4	=4
2F#	8F#L	4e	2a	schwe-
.	8G#J	.	.	.
.	4A	4d#	.	.
4E;	4B;	4e;	4g#;	-ben,
4E	4G#	8eL	4e	dein
.	.	8dnJ	.	.
=5	=5	=5	=5	=5
4F#	4c#	4c#	4a	Heil
4G#	4B	4e	4b	sinkt
4A	4A	4e	8cc#L	in
.	.	.	16ddL	.
.	.	.	16eeJJ	.
4D	4f#	4a	8ddL	den
.	.	.	8cc#J	.
=6	=6	=6	=6	=6
2.E;	2.B;	2.g#;	2.b;	Tod,
4E#	4G#	4g#	4cc#	der
=7	=7	=7	=7	=7
4F#	4c#	(8g#	4a	gro-
.	.	4f#)	.	.
4G#	4B	.	4b	-sse
.	.	8e	.	.
4A	8AL	4e	8cc#L	FÃ¼rst
.	8BJ	.	8ddJ	.
4A#	4c#	4f#	4ee	der
=8	=8	=8	=8	=8
2B	4c#	2f#	2dd	Eh-
.	4B	.	.	.
4F#;	4A#;	4f#;	4cc#;	-ren
4A	4An	4e	8cc#L	lÃ¤sst
.	.	.	8ddJ	.
=9	=9	=9	=9	=9
4G#	4B	8eL	4ee	wil-
.	.	8f#J	.	.
8F#L	4B	4g#	4ee	-lig
8EJ	.	.	.	.
4D#	8BL	4f#	4b	sich
.	8AJ	.	.	.
4E	4G#	4e	4cc#	be-
=10	=10	=10	=10	=10
4E	4c#	2f#	2a	-schwe-
4D#	4B	.	.	.
4E;	4B;	4e;	4g#;	-ren
8EL	4B	4g#	4e	mit
8DnJ	.	.	.	.
=11	=11	=11	=11	=11
4C#	4e	4a	4a	SchlÃ¤-
4BB	4d	8aL	4b	-gen,
.	.	8g#J	.	.
(8AA	4e	4a	4cc#	Hohn
4Gn)	.	.	.	.
.	4d	4a	4dd	und
8F#	.	.	.	.
=12	=12	=12	=12	=12
8EL	8eL	4.a	4cc#	gro-
8D#J	8f#J	.	.	.
4E	16BLL	.	4b	-ssem
.	16c#J	.	.	.
.	8dJ	8g#	.	.
2AA;	2c#;	2e;	2a;	Spott.
==|!	==|!	==|!	==|!	==|!
*-	*-	*-	*-	*-
!!!RWG: Key is interpreted using the Humdrum key tool.
!!!URL-pdf: https://s9.imslp.org/files/imglnks/usimg/6/6b/IMSLP24489-PMLP09471-CCARH_Bach_Chorales.pdf#page=99 Musedata edition
!!!URL-pdf: https://s9.imslp.org/files/imglnks/usimg/7/7a/IMSLP04155-Bach_-_BGA_253-438.pdf#page=77 	Bach-Gesellschaft Ausgabe, Band 39 (pp.175-276) Leipzig: Breitkopf und Härtel, 1892. Plate B.W. XXXIX.
!!!END: 1994/07/19
!!!EMD: Converted from MuseData to Humdrum Dec 19, 2000, by Andreas Kornstaedt using muse2kern.
!!!EED: Craig Stuart Sapp
!!!EEV: 2024/03/31
!!!filter-keyboard: satb2gs
